!!!COM: Mozart
!!!OTL: 12 Variations on "Ah Vous dirais-je, Maman" for the Piano,
!!!Variation: 5 b
**kern	**kern
*M2/4	*M2/4
=-	=-
8r	4.gg
(8e	.
4G)	.
.	(8gg
=	=
8r	4.ff#)
(8d	.
4G)	.
.	(8ff
=	=
8r	4.ee)
(8c	.
4G)	.
.	(8ee-
=	=
8r	4dd)
(8B	.
4G)	8r
.	8g
=	=
8r	4.gg
(8e	.
4G)	.
.	(16ggLL
.	16ff#JJ
=	=
8r	4.ff)
(8d	.
4G)	.
.	(16ffLL
.	16eeJJ
=	=
8r	4.ee-)
(8c	.
4G)	.
.	(16ff#LL
.	16ggJJ
=	=
8r	4.dd)
(8B	.
4G)	.
.	(16ffLL
.	16ddJJ
=	=
*-	*-
